X: 2164
T: Auld Lang Syne
R: reel
M: 4/4
K: Gmajor
A2|d3d e2f2|A3B A2F2|d3f e2d2|B6 dB|
A2F2 E2D2|E2D2 E2F2|A4 B3A|A<d d4:|

